images_sukapura_svg/cmd/lc_exportto.svg

<svg viewBox="0 0 24 24" xmlns="http://www.w3.org/2000/svg" xmlns:xlink="http://www.w3.org/1999/xlink"><linearGradient id="a" gradientUnits="userSpaceOnUse" x1="-9.694915" x2="-9.694915" y1="23.220339" y2="16.220339"><stop offset="0" stop-color="#0040dd"/><stop offset="1" stop-color="#0a84ff"/></linearGradient><linearGradient id="b" gradientUnits="userSpaceOnUse" x1="15" x2="17.000001" y1="7" y2="4.999999"><stop offset="0" stop-color="#fff"/><stop offset=".77967989" stop-color="#f1f1f1"/><stop offset="1" stop-color="#d5d5d5"/></linearGradient><radialGradient id="c" cx="17" cy="6.555555" gradientTransform="matrix(1.4285714 -.00000006 .00000006 1.4285714 -7.285714 -4.365078)" gradientUnits="userSpaceOnUse" r="7"><stop offset="0" stop-color="#d7d7d7"/><stop offset=".29999998" stop-color="#f7f7f7"/><stop offset="1" stop-color="#fff"/></radialGradient><path d="m5 3v18h14v-14.2705905l-4-3.7294095z" fill="url(#c)"/><path d="m5 2c-.554 0-1 .446-1 1v18c0 .554.446 1 1 1h14c.554 0 1-.446 1-1v-10.109375-3.6412209-.2079239c0-.4506799.09887-.4265951-.604637-1.0675892l-3.307389-3.2370335c-.709525-.7368575-.711223-.7368575-1.094804-.7368575h-.331557-.661613zm0 1h9v4c0 .554.446 1 1 1h4v13h-14z" fill="#98989d"/><path d="m15 7h4l-4-4z" fill="#fff" fill-rule="evenodd"/><path d="m15 3 4 4h-4z" fill="url(#b)"/><path d="m18.492188 14c-.853136.001879-1.597267.867084-1.470704 1.710938l-.011718-.146485v.445313h-5.509766c-.808471 0-1.490234.681763-1.490234 1.490234v.998047 1.001953c0 .808471.681763 1.490234 1.490234 1.490234h5.509766v.384766l.039062-.277344c-.086427.295916-.05593.612469.046875.902344h1.904297c.554 0 1-.446 1-1v-6.113281l-.439453-.439453c-.277544-.283754-.671447-.448253-1.068359-.447266z" fill="#fff" fill-opacity=".784314"/><path d="m18.494141 14.990234a.50005.50005 0 0 0 -.494141.574219v1.435547h-6.5c-.277 0-.5.223-.5.5v.998047 1.001953c0 .277.223.5.5.5h6.5v1.375a.50005.50005 0 0 0 .853516.472656l2.957031-2.960937a.50005.50005 0 0 0 -.003906-.796875l-2.953125-2.949219a.50005.50005 0 0 0 -.359375-.150391z" fill="url(#a)"/></svg>

<?xml version="1.0" encoding="UTF-8" standalone="no"?>
<svg
   xmlns:dc="http://purl.org/dc/elements/1.1/"
   xmlns:cc="http://creativecommons.org/ns#"
   xmlns:rdf="http://www.w3.org/1999/02/22-rdf-syntax-ns#"
   xmlns:svg="http://www.w3.org/2000/svg"
   xmlns="http://www.w3.org/2000/svg"
   xmlns:xlink="http://www.w3.org/1999/xlink"
   xmlns:sodipodi="http://sodipodi.sourceforge.net/DTD/sodipodi-0.dtd"
   xmlns:inkscape="http://www.inkscape.org/namespaces/inkscape"
   viewBox="0 0 24 24"
   version="1.1"
   id="svg24"
   sodipodi:docname="lc_exportto.svg"
   inkscape:version="0.92.3 (unknown)"
   inkscape:export-filename="/home/rizmut/Dokumen/Rizmut/Github/libreoffice-style-sukapura/images_sukapura/cmd/lc_exportto.png"
   inkscape:export-xdpi="96"
   inkscape:export-ydpi="96">
  <metadata
     id="metadata30">
    <rdf:RDF>
      <cc:Work
         rdf:about="">
        <dc:format>image/svg+xml</dc:format>
        <dc:type
           rdf:resource="http://purl.org/dc/dcmitype/StillImage" />
        <dc:title></dc:title>
      </cc:Work>
    </rdf:RDF>
  </metadata>
  <defs
     id="defs28">
    <linearGradient
       gradientTransform="translate(-29.694915,1.220339)"
       id="a-6"
       gradientUnits="userSpaceOnUse"
       x1="14"
       x2="13.79661"
       y1="22"
       y2="2.1355929">
      <stop
         offset="0"
         stop-color="#0040dd"
         id="stop2-3" />
      <stop
         offset="1"
         stop-color="#0a84ff"
         id="stop4-6" />
    </linearGradient>
    <linearGradient
       inkscape:collect="always"
       xlink:href="#a-6"
       id="linearGradient2350"
       x1="20"
       y1="22"
       x2="20"
       y2="15"
       gradientUnits="userSpaceOnUse" />
  </defs>
  <sodipodi:namedview
     pagecolor="#ffffff"
     bordercolor="#666666"
     borderopacity="1"
     objecttolerance="10"
     gridtolerance="10"
     guidetolerance="10"
     inkscape:pageopacity="0"
     inkscape:pageshadow="2"
     inkscape:window-width="1366"
     inkscape:window-height="706"
     id="namedview26"
     showgrid="true"
     inkscape:zoom="9.8333333"
     inkscape:cx="21.114922"
     inkscape:cy="1.7997794"
     inkscape:window-x="0"
     inkscape:window-y="0"
     inkscape:window-maximized="1"
     inkscape:current-layer="svg24">
    <inkscape:grid
       type="xygrid"
       id="grid1505"
       spacingx="0.5"
       spacingy="0.5"
       empspacing="2" />
  </sodipodi:namedview>
  <linearGradient
     id="a"
     gradientUnits="userSpaceOnUse"
     x1="15"
     x2="17.0000008"
     y1="7"
     y2="4.9999992">
    <stop
       offset="0"
       stop-color="#fff"
       id="stop2" />
    <stop
       offset=".77967989"
       stop-color="#f1f1f1"
       id="stop4" />
    <stop
       offset="1"
       stop-color="#d5d5d5"
       id="stop6" />
  </linearGradient>
  <radialGradient
     id="b"
     cx="17"
     cy="6.555555"
     gradientTransform="matrix(1.4285714 -.00000006 .00000006 1.4285714 -7.285714 -4.365078)"
     gradientUnits="userSpaceOnUse"
     r="7">
    <stop
       offset="0"
       stop-color="#d7d7d7"
       id="stop9" />
    <stop
       offset=".29999998"
       stop-color="#f7f7f7"
       id="stop11" />
    <stop
       offset="1"
       stop-color="#fff"
       id="stop13" />
  </radialGradient>
  <g
     id="g844">
    <path
       id="path16"
       fill="url(#b)"
       d="m5 3v18h14v-14.2705905l-4-3.7294095z" />
    <path
       id="path18"
       fill="#98989d"
       d="m5 2c-.554 0-1 .446-1 1v18c0 .554.446 1 1 1h14c.554 0 1-.446 1-1v-10.109375-3.6412209-.2079239c0-.4506799.09887-.4265951-.604637-1.0675892l-3.307389-3.2370335c-.709525-.7368575-.711223-.7368575-1.094804-.7368575h-.331557-.661613zm0 1h9v4c0 .554.446 1 1 1h4v13h-14z" />
    <path
       id="path20"
       fill-rule="evenodd"
       fill="#fff"
       d="m15 7h4l-4-4z" />
    <path
       id="path22"
       fill="url(#a)"
       d="m15 3 4 4h-4z" />
    <path
       style="fill:#ffffff;fill-opacity:0.78431374"
       d="M 18.492188 14 C 17.639052 14.001879 16.894921 14.867084 17.021484 15.710938 L 17.009766 15.564453 L 17.009766 16.009766 L 11.5 16.009766 C 10.691529 16.009766 10.009766 16.691529 10.009766 17.5 L 10.009766 18.498047 L 10.009766 19.5 C 10.009766 20.308471 10.691529 20.990234 11.5 20.990234 L 17.009766 20.990234 L 17.009766 21.375 L 17.048828 21.097656 C 16.962401 21.393572 16.992898 21.710125 17.095703 22 L 19 22 C 19.554 22 20 21.554 20 21 L 20 14.886719 L 19.560547 14.447266 C 19.283003 14.163512 18.8891 13.999013 18.492188 14 z "
       id="path1517" />
  </g>
  <path
     style="fill:url(#linearGradient2350);fill-opacity:1"
     d="M 18.494141 14.990234 A 0.50005 0.50005 0 0 0 18 15.564453 L 18 17 L 11.5 17 C 11.223 17 11 17.223 11 17.5 L 11 18.498047 L 11 19.5 C 11 19.777 11.223 20 11.5 20 L 18 20 L 18 21.375 A 0.50005 0.50005 0 0 0 18.853516 21.847656 L 21.810547 18.886719 A 0.50005 0.50005 0 0 0 21.806641 18.089844 L 18.853516 15.140625 A 0.50005 0.50005 0 0 0 18.494141 14.990234 z "
     id="path8" />
</svg>
